svg/fluentui-system-icons/ic_fluent_eraser_20_regular.svg

<svg width="20" height="20" viewBox="0 0 20 20" fill="none" xmlns="http://www.w3.org/2000/svg">
<path d="M11.197 2.43934C11.7828 1.85355 12.7326 1.85355 13.3184 2.43934L17.561 6.68198C18.1468 7.26777 18.1468 8.21751 17.561 8.8033L9.36408 17.0002H14.5001C14.7763 17.0002 15.0001 17.2241 15.0001 17.5002C15.0001 17.7764 14.7763 18.0002 14.5001 18.0002H7.81974C7.40996 18.0217 6.99303 17.876 6.68003 17.5629L2.43739 13.3203C1.8516 12.7345 1.8516 11.7848 2.43739 11.199L11.197 2.43934ZM12.6112 3.14645C12.416 2.95118 12.0994 2.95118 11.9041 3.14645L5.53846 9.51212L10.4882 14.4619L16.8539 8.09619C17.0491 7.90093 17.0491 7.58435 16.8539 7.38909L12.6112 3.14645ZM9.7811 15.169L4.83135 10.2192L3.14449 11.9061C2.94923 12.1014 2.94923 12.4179 3.14449 12.6132L7.38713 16.8558C7.5824 17.0511 7.89898 17.0511 8.09424 16.8558L9.7811 15.169Z" fill="#212121"/>
</svg>

<svg xmlns="http://www.w3.org/2000/svg" width="20" height="20"><path d="M11.197 2.44a1.5 1.5 0 0 1 2.121 0l4.243 4.242a1.5 1.5 0 0 1 0 2.121L9.364 17H14.5a.5.5 0 1 1 0 1H7.82a1.496 1.496 0 0 1-1.14-.437L2.437 13.32a1.5 1.5 0 0 1 0-2.121l8.76-8.76Zm1.414.706a.5.5 0 0 0-.707 0L5.538 9.512l4.95 4.95 6.366-6.366a.5.5 0 0 0 0-.707L12.61 3.146ZM9.781 15.17l-4.95-4.95-1.687 1.687a.5.5 0 0 0 0 .707l4.243 4.243a.5.5 0 0 0 .707 0l1.687-1.687Z"/></svg>
